X:1
T:538 - Oh! Vinde Meninos
T:Letra: JoÃ£o Gomes da Rocha (1861-1947)
T:MÃºsica: Melodia alemÃ£ Arr. Alfred Rhodes
M:2/4
L:1/8
Q:1/4=90
K:Abmaj
V:1
E | "Ab"A2 "(Eb7)"GF | "(Ab)"E2 EE | "Db"FE "Eb7"FG | "Ab"A2 EE | "Db"FE "(Ab)"DC | "(Db)"FE "(Ab)"DC | "Eb"B,E E3/2E/2 | E3E | "Ab"CE EE | FE EE | CE EE | "Eb"FE "Ab"HEE | "Bb7/D"A2 "Eb"BB | "Ab"c2 "Fm"A3/2A/2 | "Bbm"B2 "Eb"AG | "Ab"A2z |]
w:1.~Oh, vin-de, me-ni-nos! Can-tai a lin-dahis-tÃ³-ria Do bom Mes-si-as dos ju-deus, Je-sus, o Sal-va-dor! E re-pe-ti, com gra-ti-dÃ£o, A do-cee ter-naex-cla-ma-Ã§Ã£o: 'Dei-xai os me-ni-nos, Que ve-nham a mim!'
w:2.~Pais cren-tes, de-vo-tos, Tra-zi-am os fi-lhi-nhos, Bus-can-doa bÃªn-Ã§Ã£o eo-ra-Ã§Ã£o De Cris-toE-ma-nu-el. Mas com pa-la-vras de ri-gor SÃ£o a-fas-ta-dos do Se-nhor: 'Le-vai os me-ni-nos, Ti-rai os da-qui!'
w:3.~Mas, eis queo bom Mes-tre, Com voz su-a-vee mei-ga, Os pe-que-ni-nos cha-maa si, Eaos cir-cuns-tan-tes diz: 'So-bree-les mi-nhas mÃ£os po-rei, E pe-lo tais eu o-ra-rei; Dei-xai os me-ni-nos Que ve-nham a mim!'
w:4.~Oh, vin-de, me-ni-nos! Je-sus vos deu seu san-gue E vos con-vi-da pa-raos cÃ©us. Bus-cai a sal-va-Ã§Ã£o! Ou-vi a voz do Re-den-tor, E-leÃ© o vos-so bom Pas-tor: 'Dei-xai os me-ni-nos Que ve-nham a mim!'          				
W:
W:
W:1. Oh, vinde, meninos!
W:Cantai a linda histÃ³ria
W:Do bom Messias dos judeus,
W:Jesus, o Salvador!
W:E repeti, com gratidÃ£o,
W:A doce e terna exclamaÃ§Ã£o:
W:'Deixai os meninos,
W:Que venham a mim!'
W:
W:2. Pais crentes, devotos,
W:Traziam os filhinhos,
W:Buscando a bÃªnÃ§Ã£o e oraÃ§Ã£o
W:De Cristo Emanuel.
W:Mas com palavras de rigor
W:SÃ£o afastados do Senhor:
W:'Levai os meninos,
W:Tirai-os daqui!'
W:
W:
W:
W:3. Mas, eis que o bom Mestre,
W:Com voz suave e meiga,
W:Os pequeninos chama a si,
W:E aos circunstantes diz:
W:'Sobre eles minhas mÃ£os porei,
W:E pelo tais eu orarei;
W:Deixai os meninos
W:Que venham a mim!'
W:
W:4. Oh, vinde, meninos!
W:Jesus vos deu seu sangue
W:E vos convida para os cÃ©us.
W:Buscai a salvaÃ§Ã£o!
W:Ouvi a voz do Redentor,
W:Ele Ã© o vosso bom Pastor:
W:'Deixai os meninos
W:Que venham a mim!'
W:
W:

